data/styles/clear/style-clear/symbols/greengrocer-m.svg

<svg height="24" viewBox="0 0 24 24" width="24"><g fill="none" fill-rule="evenodd"><circle cx="12" cy="12" fill="#fff" opacity=".6" r="12"/><circle cx="12" cy="12" fill="#8c5f93" r="11"/><path d="m17 6.80138907c-.3518182.48323762-.9531818.80138908-1.6371818.80138908s-1.2845455-.31815146-1.6355455-.80138908c.351-.48323761.9515455-.80138907 1.6363637-.80138907.684 0 1.2845454.31815146 1.6363636.80138907zm-2.9667273 4.81795113-.7044545-3.39628691c-.0081818-.04087084-.0155455-.08094029-.0253637-.11940697l-.013909-.06891946h-.0081819c-.1718181-.57780152-.6578181-1.02177107-1.2657272-1.14518499v-.88954187h-.6676364v.88874048c-.6079091.12261253-1.0939091.56738347-1.2657273 1.14518499h-.0081818l-.0139091.06891946c-.0106363.03926807-.0171818.07933752-.0253636.11940697l-.70445456 3.3962869c-.81327273.6603446-1.33036364 1.6588754-1.33036364 2.774409 0 1.9914518 1.64863636 3.6070522 3.6818182 3.6070522 2.0331818 0 3.6818182-1.6156004 3.6818182-3.6070522 0-1.1147322-.5170909-2.113263-1.3303637-2.7736076z" fill="#fff"/></g></svg>

<svg width="24" height="24" viewBox="0 0 24 24">
  <g fill="none" fill-rule="evenodd">
    <circle cx="12" cy="12" r="12" fill="#FFF" opacity=".6"/>
    <circle cx="12" cy="12" r="11" fill="#8C5F93"/>
    <path fill="#FFF" d="M17,6.80138907 C16.6481818,7.28462669 16.0468182,7.60277815 15.3628182,7.60277815 C14.6788182,7.60277815 14.0782727,7.28462669 13.7272727,6.80138907 C14.0782727,6.31815146 14.6788182,6 15.3636364,6 C16.0476364,6 16.6481818,6.31815146 17,6.80138907 L17,6.80138907 Z M14.0332727,11.6193402 L13.3288182,8.22305329 C13.3206364,8.18218245 13.3132727,8.142113 13.3034545,8.10364632 L13.2895455,8.03472686 L13.2813636,8.03472686 C13.1095455,7.45692534 12.6235455,7.01295579 12.0156364,6.88954187 L12.0156364,6 L11.348,6 L11.348,6.88874048 C10.7400909,7.01135301 10.2540909,7.45612395 10.0822727,8.03392547 L10.0740909,8.03392547 L10.0601818,8.10284493 C10.0495455,8.142113 10.043,8.18218245 10.0348182,8.2222519 L9.33036364,11.6185388 C8.51709091,12.2788834 8,13.2774142 8,14.3929478 C8,16.3843996 9.64863636,18 11.6818182,18 C13.715,18 15.3636364,16.3843996 15.3636364,14.3929478 C15.3636364,13.2782156 14.8465455,12.2796848 14.0332727,11.6193402 L14.0332727,11.6193402 Z"/>
  </g>
</svg>
